public/assets/images/icons/yellow/crown/assessment.svg

<svg width="16" height="16" xmlns="http://www.w3.org/2000/svg" viewBox="0 0 16 16" shape-rendering="geometricPrecision" fill="#ffad00"><defs><mask id="a"><rect fill="#fff" width="100%" height="100%"/><path fill="#000" d="M14.5 1.716L13-.371l-1.501 2.087-1.982-2.76-.836.011 1.888 6.811h4.86l1.884-6.792-.841-.013z"/></mask></defs><path fill="#FCC70A" d="M14.858 5.028H11.14L9.999.914l.749 1.043.751 1.045.75-1.045L13 .914l.75 1.043.749 1.045.751-1.045L16 .914z"/><g mask="url(#a)"><path d="M4.622 5.865H1.017V2.262h3.604v3.603h.001zM1.55 5.331h2.536V2.795H1.55v2.536zm3.072 4.472H1.017V6.199h3.604v3.604h.001zM1.55 9.268h2.536V6.73H1.55v2.538zm3.072 4.47H1.017v-3.604h3.604v3.604h.001zm-3.072-.534h2.536V10.67H1.55v2.534zM6.041 3.051h8.941v2.137H6.041zm0 3.892h8.941v2.135H6.041zm0 3.912h8.941v2.136H6.041z"/><path d="M5.248 6.887l-.627-.629-1.523 1.521-.797-.795-.626.625 1.424 1.425z"/></g></svg>

<?xml version="1.0"?><!DOCTYPE svg PUBLIC "-//W3C//DTD SVG 1.1//EN" "http://www.w3.org/Graphics/SVG/1.1/DTD/svg11.dtd"><svg width="16px" height="16px" xmlns="http://www.w3.org/2000/svg" viewBox="0 0 16 16" shape-rendering="geometricPrecision" fill="#ffad00"><defs><mask id="crown-path"><rect fill="#fff" width="100%" height="100%"/><polygon points="14.5,1.716 13,-0.371 11.499,1.716 9.517,-1.044 8.681,-1.033 10.569,5.778 15.429,5.778 17.313,-1.014 16.472,-1.027 " fill="#000"/></mask></defs><g id="crown" display="inline" fill="#cb1800"><polygon fill="#FCC70A" points="14.858,5.028 11.14,5.028 9.999,0.914 10.748,1.957 11.499,3.002 12.249,1.957 13,0.914 13.75,1.957 14.499,3.002 15.25,1.957 16,0.914 "/></g><g mask="url(#crown-path)"><g><g><path d="M4.622,5.865H1.017V2.262h3.604V5.865L4.622,5.865z M1.55,5.331h2.536V2.795H1.55V5.331L1.55,5.331z"/></g><g><path d="M4.622,9.803H1.017V6.199h3.604V9.803L4.622,9.803z M1.55,9.268h2.536V6.73H1.55V9.268L1.55,9.268z"/></g><g><path d="M4.622,13.738H1.017v-3.604h3.604V13.738L4.622,13.738z M1.55,13.204h2.536V10.67H1.55V13.204L1.55,13.204z"/></g><rect x="6.041" y="3.051" width="8.941" height="2.137"/><rect x="6.041" y="6.943" width="8.941" height="2.135"/><rect x="6.041" y="10.855" width="8.941" height="2.136"/><polygon points="5.248,6.887 4.621,6.258 3.098,7.779 2.301,6.984 1.675,7.609 3.099,9.034"/></g></g></svg>
